brandFactory_export/1.Light/Farmacia _1Light.svg

<?xml version="1.0" encoding="UTF-8"?>
<svg width="24px" height="24px" viewBox="0 0 24 24" version="1.1" xmlns="http://www.w3.org/2000/svg" xmlns:xlink="http://www.w3.org/1999/xlink">
    <title>1.Light/Farmacia _1Light</title>
    <g id="Symbols" stroke="none" stroke-width="1" fill="none" fill-rule="evenodd">
        <g id="1.Light/Farmacia-_1Light" fill="#5CB615" fill-rule="nonzero">
            <path d="M18.6756303,18.0134454 C18.0033613,18.5042017 17.1563025,18.7630252 16.3495798,18.8907563 C18.0403361,18.0268908 18.8705882,16.897479 18.8705882,15.4756303 C18.8705882,14.087395 17.512605,13.2705882 16.5243697,12.8571429 C16.789916,12.6487395 17.0352941,12.4134454 17.2605042,12.1579832 C17.3714286,12.2218487 17.4789916,12.2823529 17.5731092,12.3394958 C17.7478992,12.4436975 17.9058824,12.5378151 18.0705882,12.6218487 C18.9747899,13.0823529 19.6470588,14.205042 19.7478992,15.4084034 C19.8319328,16.5042017 19.4453782,17.4521008 18.6756303,18.0134454 M13.3109244,18.9378151 C13.2201681,18.9647059 13.1361345,19.0151261 13.0722689,19.0823529 L13.0722689,14.1680672 C13.8991597,14.1109244 14.7092437,13.892437 15.4554622,13.5260504 C16.3663866,13.7848739 17.8588235,14.4638655 17.8588235,15.4756303 C17.8588235,17.0252101 16.3731092,18.1546218 13.3109244,18.9378151 M14.3865546,22.6722689 L10.9176471,22.6722689 C11.0588235,21.8151261 11.610084,21.4285714 12.6521008,21.4285714 C13.6941176,21.4285714 14.2453782,21.8151261 14.3865546,22.6722689 M7.20672269,8.44705882 L7.20672269,7.94957983 L17.5932773,7.94957983 L17.5932773,8.54789916 C17.5428571,11.6 15.0689076,13.2000068 12.6487395,13.2000068 C10.0369748,13.2033613 7.23361345,11.9529412 7.20672269,8.44705882 M5.11932773,5.28739496 C5.35798319,3.98319328 6.25546218,2.78319328 7.58655462,1.98991597 C10.9781513,-0.0302521008 14.1109244,1.71428571 14.2588235,1.79831933 C14.2722689,1.80504202 15.4285714,2.45378151 15.6033613,3.4789916 C15.697479,4.04369748 15.4789916,4.65210084 14.9546218,5.28739496 C14.6285714,5.12941176 14.0436975,4.62857143 13.9596639,3.06554622 C13.9495798,2.91428571 13.8722689,2.77647059 13.7512605,2.69243697 C13.6470588,2.61848739 11.1764706,0.941176471 8.34285714,2.62857143 C7.13277311,3.34789916 6.36302521,4.34285714 6.16470588,5.42857143 C6.07394958,5.92605042 6,6.6487395 6.21512605,7.37815126 C6.21176471,7.40504202 6.19831933,7.43193277 6.19831933,7.45882353 L6.19831933,8.45042017 C6.20168067,8.71596639 6.22184874,8.97142857 6.25210084,9.22016807 C5.27394958,8.09747899 4.8605042,6.71596639 5.11932773,5.28739496 M20.7495798,15.3310924 C20.6218487,13.7781513 19.7512605,12.3731092 18.5310924,11.7512605 C18.3865546,11.6773109 18.2487395,11.5932773 18.0941176,11.502521 C18.0168067,11.4521008 17.9294118,11.405042 17.8420168,11.3512605 C18.2991597,10.5747899 18.5848739,9.64369748 18.5983193,8.56470588 L18.6016807,7.45882353 C18.6016807,7.18655462 18.3764706,6.96806723 18.097479,6.96806723 L7.13613445,6.96806723 C7.05210084,6.59159664 7.05546218,6.1512605 7.15630252,5.60336134 C7.35462185,4.51764706 8.3092437,3.80168067 8.86722689,3.47226891 C10.7394958,2.35294118 12.4134454,3.07563025 12.9680672,3.38151261 C13.2235294,6.18487395 15.0084034,6.3394958 15.0857143,6.34285714 C15.2336134,6.35294118 15.3915966,6.29579832 15.4957983,6.18487395 C16.3865546,5.2302521 16.7596639,4.26890756 16.594958,3.3210084 C16.3428571,1.80840336 14.810084,0.968067227 14.7563025,0.941176471 C14.605042,0.853781513 10.9815126,-1.18655462 7.05546218,1.14957983 C5.4789916,2.08739496 4.41008403,3.53613445 4.12436975,5.11596639 C3.72436975,7.31428571 4.61512605,9.41512605 6.56806723,10.8840336 C6.61512605,10.9176471 6.67226891,10.9176471 6.72605042,10.9344538 C7.59663866,12.8235294 9.49579832,14.010084 12.0605042,14.1647059 L12.0605042,20.4840336 C10.6588235,20.6857143 9.86890756,21.6369748 9.86890756,23.1630252 C9.86890756,23.4352941 10.0941176,23.6571806 10.3731092,23.6571806 L14.9243697,23.6571806 C15.2,23.6605042 15.4252101,23.4386555 15.4285714,23.1663866 C15.4285714,21.5798319 14.5714286,20.6252101 13.0689076,20.4739496 L13.0689076,19.7512605 C13.1462185,19.8319328 13.2470588,19.8857143 13.3579832,19.902521 C13.4184874,19.912605 14,19.9966387 14.8235294,19.9966387 C16.0907563,19.9966387 17.9226891,19.794958 19.2773109,18.8067227 C20.3327731,18.0336134 20.8672269,16.7697479 20.7495798,15.3310924" id="Farmacia-_1Light"></path>
        </g>
    </g>
</svg>

<svg width="24" height="24" viewBox="0 0 24 24" xmlns="http://www.w3.org/2000/svg"><path d="M18.676 18.013c-.673.491-1.52.75-2.326.878 1.69-.864 2.52-1.994 2.52-3.415 0-1.389-1.357-2.205-2.346-2.619.266-.208.511-.444.737-.699.11.064.218.124.312.181.175.105.333.199.498.283.904.46 1.576 1.583 1.677 2.786.084 1.096-.303 2.044-1.072 2.605m-5.365.925a.545.545 0 00-.239.144v-4.914a6.414 6.414 0 002.383-.642c.911.259 2.404.938 2.404 1.95 0 1.55-1.486 2.679-4.548 3.462m1.076 3.734h-3.47c.142-.857.693-1.243 1.735-1.243 1.042 0 1.593.386 1.735 1.243M7.207 8.447V7.95h10.386v.598C17.543 11.6 15.07 13.2 12.65 13.2c-2.612.003-5.415-1.247-5.442-4.753m-2.088-3.16c.239-1.304 1.136-2.504 2.468-3.297 3.391-2.02 6.524-.276 6.672-.192.013.007 1.17.656 1.344 1.681.094.565-.124 1.173-.648 1.808-.326-.158-.911-.658-.995-2.221a.494.494 0 00-.209-.374c-.104-.074-2.575-1.75-5.408-.063-1.21.719-1.98 1.714-2.178 2.8-.091.497-.165 1.22.05 1.95-.003.026-.017.053-.017.08v.991c.004.266.024.521.054.77-.978-1.123-1.391-2.504-1.133-3.933m15.63 10.044c-.127-1.553-.998-2.958-2.218-3.58-.144-.074-.282-.158-.437-.248-.077-.05-.165-.098-.252-.152a5.56 5.56 0 00.756-2.786l.004-1.106a.496.496 0 00-.505-.49H7.137c-.085-.377-.082-.818.02-1.366.198-1.085 1.152-1.801 1.71-2.13 1.872-1.12 3.546-.397 4.101-.091.256 2.803 2.04 2.957 2.118 2.96a.525.525 0 00.41-.157c.89-.955 1.264-1.916 1.099-2.864-.252-1.513-1.785-2.353-1.839-2.38-.151-.087-3.774-2.128-7.7.209-1.577.937-2.646 2.386-2.932 3.966-.4 2.198.491 4.3 2.444 5.768.047.034.104.034.158.05.87 1.89 2.77 3.076 5.335 3.23v6.32c-1.402.202-2.192 1.153-2.192 2.679a.5.5 0 00.504.494h4.551c.276.004.501-.218.505-.49 0-1.587-.858-2.542-2.36-2.693v-.723c.077.08.178.135.289.152.06.01.642.094 1.466.094 1.267 0 3.099-.202 4.453-1.19 1.056-.773 1.59-2.037 1.473-3.476" fill="#5CB615" fill-rule="nonzero"/></svg>
